!!!!SEGMENT: Ano3002-Ce_que_mon_cueur_pense.krn
!!!id: Ano3002
!!!AGN: Chanson
!!!voices: 5
!!!COM: Anonymous
!!!OTL: Ce que mon cueur pense
**kern	**text	**kern	**text	**kern	**text	**kern	**text	**kern	**text
*part5	*part5	*part4	*part4	*part3	*part3	*part2	*part2	*part1	*part1
*staff5	*staff5	*staff4	*staff4	*staff3	*staff3	*staff2	*staff2	*staff1	*staff1
*I"Bassus	*	*I"Tenor II	*	*I"Tenor I	*	*I"Altus	*	*I"Superius	*
*I'B	*	*I'T. II	*	*I'T. I	*	*I'A	*	*I'S	*
*clefF4	*	*clefGv2	*	*clefGv2	*	*clefGv2	*	*clefG2	*
*k[]	*	*k[]	*	*k[]	*	*k[]	*	*k[]	*
*C:	*	*C:	*	*C:	*	*C:	*	*C:	*
*M2/1	*	*M2/1	*	*M2/1	*	*M2/1	*	*M2/1	*
*met(C|)	*	*met(C|)	*	*met(C|)	*	*met(C|)	*	*met(C|)	*
0r	.	0r	.	2.A	Ce	0r	.	0r	.
.	.	.	.	4B	que	.	.	.	.
.	.	.	.	2c	mon	.	.	.	.
.	.	.	.	2d	cueur	.	.	.	.
=1	=1	=1	=1	=1	=1	=1	=1	=1	=1
0r	.	2.A	Ce	1c	pen-	0r	.	0r	.
.	.	4B	que	.	.	.	.	.	.
.	.	2c	mon	2.F	.	.	.	.	.
.	.	2d	cueur	.	.	.	.	.	.
.	.	.	.	4G	.	.	.	.	.
=2	=2	=2	=2	=2	=2	=2	=2	=2	=2
1r	.	1c	pen-	0A	-se,	0r	.	0r	.
2.F	Je	1c	-se,	.	.	.	.	.	.
4F	ne	.	.	.	.	.	.	.	.
=3	=3	=3	=3	=3	=3	=3	=3	=3	=3
2F	le	2A	Je	2.c	Je	0r	.	0r	.
2F	dy	2A	ne	.	.	.	.	.	.
.	.	.	.	4c	ne	.	.	.	.
2E	pas,	2G	le	2c	le	.	.	.	.
2F	he-	2A	dy	2c	dy	.	.	.	.
=4	=4	=4	=4	=4	=4	=4	=4	=4	=4
2G	.	2B	pas,	2B	pas,	0r	.	0r	.
2E	.	2G	He-	2c	He-	.	.	.	.
1D	-las,	1A	-las,	2.d	-las,	.	.	.	.
.	.	.	.	4e	.	.	.	.	.
=5	=5	=5	=5	=5	=5	=5	=5	=5	=5
2.D	je	2.F	je	2f	.	2.A	Ce	0r	.
.	.	.	.	2F	je	.	.	.	.
4D	ne	4F	ne	.	.	4B	que	.	.
2C	le	2E	le	1G	ne	2c	mon	.	.
2BB	dy	2D	dy	.	.	2d	cueur	.	.
=6	=6	=6	=6	=6	=6	=6	=6	=6	=6
2.AA	pas,	1.E	pas,	2.G	le	2.c	pen-	0r	.
4BB	.	.	.	4A	dy	4d	.	.	.
2C	.	.	.	2G	pas,	2e	.	.	.
2D	He-	4F	He-	2F	.	[2d	.	.	.
.	.	4G	.	.	.	.	.	.	.
=7	=7	=7	=7	=7	=7	=7	=7	=7	=7
1AA	-las,	1A	-las,	1E	he-	2d]	.	1r	.
.	.	.	.	.	.	2c#i	.	.	.
2.D	je	2.F	je	2D	-las,	1d	-se,	2.a	Ce
.	.	.	.	[2A	je	.	.	.	.
4D	ne	4F	ne	.	.	.	.	4b	que
=8	=8	=8	=8	=8	=8	=8	=8	=8	=8
2C	le	2E	le	2A]	.	1r	.	2cc	mon
2BB	dy	2D	dy	2G	ne	.	.	2dd	cueur
[1AA	pas,	2E	pas,	2A	le	2.c	Je	1cc	pen-
.	.	[2A	He-	2F	dy	.	.	.	.
.	.	.	.	.	.	4c	ne	.	.
=9	=9	=9	=9	=9	=9	=9	=9	=9	=9
1AA]	.	2A]	.	1E	pas,	2c	le	1a	-se,
.	.	4G	.	.	.	2c	dy	.	.
.	.	4F	.	.	.	.	.	.	.
1r	.	1G	.	1E	He-	2B	pas,	1r	.
.	.	.	.	.	.	2c	He-	.	.
=10	=10	=10	=10	=10	=10	=10	=10	=10	=10
0r	.	1A	-las,	1D	-las,	1d	-las,	2.f	Je
.	.	.	.	.	.	.	.	4f	ne
.	.	2.c	je	2.A	je	1r	.	2f	le
.	.	.	.	.	.	.	.	2f	dy
.	.	4c	ne	4A	ne	.	.	.	.
=11	=11	=11	=11	=11	=11	=11	=11	=11	=11
0r	.	2c	le	2A	le	0r	.	2e	pas,
.	.	2c	dy	2A	dy	.	.	2f	He-
.	.	2B	pas	2G	pas,	.	.	1g	-las,
.	.	2c	He-	2E	He-	.	.	.	.
=12	=12	=12	=12	=12	=12	=12	=12	=12	=12
1r	.	1d	-las,	1D	-las,	1r	.	1r	.
2D	je	2.A	je	1r	.	2.d	je	2.f	je
2D	ne	.	.	.	.	.	.	.	.
.	.	4A	ne	.	.	4d	ne	4f	ne
=13	=13	=13	=13	=13	=13	=13	=13	=13	=13
2D	le	2A	le	0r	.	2d	le	2f	le
2D	dy	2A	dy	.	.	2d	dy	2f	dy
2AA	pas,	1A	pas,	.	.	2c	pas,	2e	pas
2D	He-	.	.	.	.	2d	He-	2f	He-
=14	=14	=14	=14	=14	=14	=14	=14	=14	=14
1GG	-las,	1B	He-	1r	.	1d	-las,	4g	-las
.	.	.	.	.	.	.	.	4f	.
.	.	.	.	.	.	.	.	4e	.
.	.	.	.	.	.	.	.	4d	.
1r	.	2A	-las,	2.F	je	2r	.	2c	.
.	.	2D	He-	.	.	[2d	je	[2f	je
.	.	.	.	4F	ne	.	.	.	.
=15	=15	=15	=15	=15	=15	=15	=15	=15	=15
1r	.	1D	-las,	2F	le	4d]	.	4f]	.
.	.	.	.	.	.	4c	ne	4e	.
.	.	.	.	2F	dy	2A	le	4f	.
.	.	.	.	.	.	.	.	4g	.
1AA	He-	1A	He-	2E	pas,	2.c	dy	2a	.
.	.	.	.	2F	He-	.	.	2a	ne
.	.	.	.	.	.	4d	.	.	.
=16	=16	=16	=16	=16	=16	=16	=16	=16	=16
1E	-las,	1B	.	1.G	-las,	2e	pas,	2.g	le
.	.	.	.	.	.	4E	He-	.	.
.	.	.	.	.	.	4F	.	4f	.
2C	He-	2c	-las,	.	.	4G	.	4e	.
.	.	.	.	.	.	4E	.	4d	.
2AA	-las,	2C	He-	2A	He-	[2A	.	[2f	dy
=17	=17	=17	=17	=17	=17	=17	=17	=17	=17
1BB-X	he-	1D	.	2F	-las,	4A]	.	4f]	.
.	.	.	.	.	.	4G	.	4e	.
.	.	.	.	4E	.	2G	.	1d	pas
.	.	.	.	4D	.	.	.	.	.
1AA	.	1A	.	2E	.	1A	-las.	.	.
.	.	.	.	2E	He-	.	.	2c#i	He-
=18	=18	=18	=18	=18	=18	=18	=18	=18	=18
1D	-las.	1F	-las.	1D	-las.	2r	.	0d	-las.
.	.	.	.	.	.	2A	Au	.	.
2.D	Au	1r	.	1A	.	2F	jar-	.	.
.	.	.	.	.	.	[2f	-din,	.	.
4C	jar-	.	.	.	.	.	.	.	.
=19	=19	=19	=19	=19	=19	=19	=19	=19	=19
2D	-din,	2.A	Au	0r	.	2f]	.	0r	.
2E	mon	.	.	.	.	2e	mon	.	.
.	.	4G	jar-	.	.	.	.	.	.
2F	pe-	2A	-din,	.	.	2c	pe-	.	.
4E	.	2B	mon	.	.	2d	.	.	.
4D	.	.	.	.	.	.	.	.	.
=20	=20	=20	=20	=20	=20	=20	=20	=20	=20
1C	-re,	2.c	pe-	0r	.	2e	.	0r	.
.	.	.	.	.	.	4d	.	.	.
.	.	8BL	.	.	.	4c	.	.	.
.	.	8AJ	.	.	.	.	.	.	.
1r	.	4G	.	.	.	2d	.	.	.
.	.	4F	.	.	.	.	.	.	.
.	.	2G	.	.	.	2e	-re,	.	.
=21	=21	=21	=21	=21	=21	=21	=21	=21	=21
2.D	au	4F	.	1r	.	2.f	Un	0r	.
.	.	4D	.	.	.	.	.	.	.
.	.	1d	.	.	.	.	.	.	.
4C	jar-	.	.	.	.	4f	oy-	.	.
2D	-din,	.	.	2.A	Au	2f	-seau	.	.
2E	mon	[2c	.	.	.	2e	.	.	.
.	.	.	.	4G	jar-	.	.	.	.
=22	=22	=22	=22	=22	=22	=22	=22	=22	=22
2F	pe-	2c]	.	2A	-din,	2c	.	0r	.
4E	.	2F	.	2B	mon	2d	y	.	.
4D	.	.	.	.	.	.	.	.	.
2.C	.	1G	.	2.c	pe-	[1e	a,	.	.
4D	.	.	.	8BL	.	.	.	.	.
.	.	.	.	8AJ	.	.	.	.	.
=23	=23	=23	=23	=23	=23	=23	=23	=23	=23
1E	.	2C	-re,	2G	-re,	1e]	.	1r	.
.	.	2G	Un	2.c	Un	.	.	.	.
2C	.	2E	oy-	.	.	1r	.	2.a	Au
.	.	.	.	4B	oy-	.	.	.	.
2D	.	2F	-seau	[2A	-seau	.	.	.	.
.	.	.	.	.	.	.	.	4a	jar-
=24	=24	=24	=24	=24	=24	=24	=24	=24	=24
1BB	.	1D	y	2A]	.	0r	.	2b	-din,
.	.	.	.	2G	y	.	.	2b	mon
1AA	-re,	1E	a,	1A	a,	.	.	2cc	pe-
.	.	.	.	.	.	.	.	4b	.
.	.	.	.	.	.	.	.	4a	.
=25	=25	=25	=25	=25	=25	=25	=25	=25	=25
1E	.	2r	.	2B	un	1r	.	1g	-re,
.	.	2G	un	2c	oy-	.	.	.	.
2.D	Un	1A	oy-	2.F	-seau	2.d	un	1r	.
4D	oy-	.	.	4G	y	4d	oy-	.	.
=26	=26	=26	=26	=26	=26	=26	=26	=26	=26
2D	-seau	2F	-seau	1A	a,	2d	-seau	2.a	au
2AA	y	2C	y	.	.	2e	.	.	.
.	.	.	.	.	.	.	.	4a	jar-
1D	a,	2.F	a,	2r	.	2f	.	2a	-din,
.	.	.	.	2D	un	4e	.	2b	mon
.	.	4G	.	.	.	4d	.	.	.
=27	=27	=27	=27	=27	=27	=27	=27	=27	=27
2r	.	4A	.	2F	oy-	2.c	.	2.cc	pe-
.	.	4B	.	.	.	.	.	.	.
2AA	un	2c	.	2E	.	.	.	.	.
.	.	.	.	.	.	4d	.	8bL	.
.	.	.	.	.	.	.	.	8aJ	.
2.E	oy-	1C	un	2.G	.	1e	y	[1g	-re,
4F	.	.	.	4A	.	.	.	.	.
=28	=28	=28	=28	=28	=28	=28	=28	=28	=28
2G	.	1G	oy-	2B	.	2d	a,	2g]	.
2C	-seau	.	.	2c	-seau	2.e	y	2.cc	Un
1F	y	2A	-seau	1A	y	.	.	.	.
.	.	.	.	.	.	4d	.	4b	oy-
.	.	2F	y	.	.	4d	.	[2a	-seau
.	.	.	.	.	.	4c	.	.	.
=29	=29	=29	=29	=29	=29	=29	=29	=29	=29
1E	.	1G	a	1B	.	1e	.	2a]	.
.	.	.	.	.	.	.	.	2g#i	y
1AA	a	1E	.	1A	a	1c	a	[1a	a
=30	=30	=30	=30	=30	=30	=30	=30	=30	=30
0r	.	2.A	Qui	2r	.	0r	.	0a_	.
.	.	.	.	2D	Qui	.	.	.	.
.	.	4B	dit	.	.	.	.	.	.
.	.	2c	tous	2A	dit	.	.	.	.
.	.	2d	les	2D	.	.	.	.	.
=31	=31	=31	=31	=31	=31	=31	=31	=31	=31
0r	.	1c	jours,	2.F	tous	2.A	Qui	0a_	.
.	.	.	.	4G	les	4B	dit	.	.
.	.	1A	.	2A	jours,	2c	tous	.	.
.	.	.	.	2D	qui	2d	les	.	.
=32	=32	=32	=32	=32	=32	=32	=32	=32	=32
0r	.	2.F	qui	2.A	dit	1c	jours	0a_	.
.	.	4F	dit	4B	.	.	.	.	.
.	.	2F	tous	2c	tous	1A	.	.	.
.	.	2D	les	2d	les	.	.	.	.
=33	=33	=33	=33	=33	=33	=33	=33	=33	=33
0r	.	1A	jours	1c	jours	1r	.	1a]	.
.	.	1D	.	1A	.	2.f	Qui	1r	.
.	.	.	.	.	.	4f	s'en-	.	.
=34	=34	=34	=34	=34	=34	=34	=34	=34	=34
0r	.	2.A	Qui	2.c	Qui	2f	-vo-	0r	.
.	.	.	.	.	.	2f	-le-	.	.
.	.	4A	s'en-	4c	s'en-	.	.	.	.
.	.	2A	-vo-	2c	-vo-	2e	-ra,	.	.
.	.	2A	-le-	2c	-le-	2f	He-	.	.
=35	=35	=35	=35	=35	=35	=35	=35	=35	=35
1r	.	2G	-ra,	2B	-ra,	1g	-las,	0r	.
.	.	2E	He-	2c	He-	.	.	.	.
2.D	Qui	1A	-las,	1d	-las,	[1f	He-	.	.
4D	s'en-	.	.	.	.	.	.	.	.
=36	=36	=36	=36	=36	=36	=36	=36	=36	=36
2D	-vo-	1F	.	2.A	qui	2f]	.	0r	.
2D	-le-	.	.	.	.	4e	.	.	.
.	.	.	.	4A	s'en-	4d	.	.	.
2C	-ra,	1r	.	2A	-vo-	2e	.	.	.
2D	he-	.	.	2A	-le-	[2d	.	.	.
=37	=37	=37	=37	=37	=37	=37	=37	=37	=37
1E	-las,	1r	.	4G	-ra,	2d]	.	0r	.
.	.	.	.	4F	.	.	.	.	.
.	.	.	.	4G	.	2c#i	.	.	.
.	.	.	.	4A	.	.	.	.	.
2.D	qui	2.F	qui	2B-X	.	1d	-las,	.	.
.	.	.	.	4B-i	qui	.	.	.	.
4D	s'en-	4F	s'en-	4B-i	s'en-	.	.	.	.
=38	=38	=38	=38	=38	=38	=38	=38	=38	=38
2C	-vo-	2E	-vo-	2A	-vo-	0r	.	1r	.
2BB	-le-	2D	-le-	2G	-le-	.	.	.	.
2AA	-ra,	2.E	-ra,	[1A	-ra,	.	.	2.a	Qui
[2AA	qui	.	.	.	.	.	.	.	.
.	.	8FL	.	.	.	.	.	4b	dit
.	.	8GJ	.	.	.	.	.	.	.
=39	=39	=39	=39	=39	=39	=39	=39	=39	=39
2AA]	.	2A	.	2A]	.	0r	.	2cc	tous
2GG	s'en-	2D	he-	2B	he-	.	.	2dd	les
2C	-vo-	1E	-las,	1c	-las,	.	.	1cc	jours
2C	-le-	.	.	.	.	.	.	.	.
=40	=40	=40	=40	=40	=40	=40	=40	=40	=40
1D	-ra,	2.F	qui	1r	.	1r	.	1a	.
.	.	4F	s'en-	.	.	.	.	.	.
2D	qui	2F	-vo-	2.A	qui	2d	qui	2f	Qui
2D	s'en-	2F	-le-	.	.	2d	s'en-	2f	s'en-
.	.	.	.	4A	s'en-	.	.	.	.
=41	=41	=41	=41	=41	=41	=41	=41	=41	=41
2D	-vo-	2.F	-ra,	2A	-vo-	2d	-vo-	2f	-vo-
2D	-le-	.	.	2A	-le-	2d	-le-	2f	-le-
.	.	4G	He-	.	.	.	.	.	.
2AA	-ra,	2A	-las,	2A	-ra,	2c	-ra,	2e	-ra,
2D	He-	2F	.	2D	He-	2f	He-	2f	He-
=42	=42	=42	=42	=42	=42	=42	=42	=42	=42
1C	-las,	2c	qui	1E	-las,	1e	-las,	1.g	-las,
.	.	4B	.	.	.	.	.	.	.
.	.	4A	.	.	.	.	.	.	.
2C	qui	2G	.	2E	qui	2.c	qui	.	.
2AA	s'en-	2C	s'en-	2F	s'en-	.	.	2a	qui
.	.	.	.	.	.	4c	s'en-	.	.
=43	=43	=43	=43	=43	=43	=43	=43	=43	=43
1BB-X	-vo-	2.F	-vo-	1D	-vo-	2d	-vo-	2f	s'en-
.	.	.	.	.	.	2D	-le-	4e	-vo-
.	.	4G	-le-	.	.	.	.	4d	.
1AA	-le-	2A	-ra,	1E	-le-	1A	-ra.	2c#i	.
.	.	2A	He-	.	.	.	.	2c#i	-le-
=44	=44	=44	=44	=44	=44	=44	=44	=44	=44
1D	-ra.	1F	-las.	4D	-ra,	2.A	Ce	1d	-ra.
.	.	.	.	4E	.	.	.	.	.
.	.	.	.	4F	.	.	.	.	.
.	.	.	.	4G	.	4B	que	.	.
1r	.	1r	.	2A	.	2c	mon	1r	.
.	.	.	.	2D	He-	2d	cueur	.	.
=45	=45	=45	=45	=45	=45	=45	=45	=45	=45
0r	.	2.A	Ce	2.F	-las,	1c	pen-	0r	.
.	.	4B	que	4G	He-	.	.	.	.
.	.	2c	mon	2A	-las.	1F	-se,	.	.
.	.	2d	cueur	2D	.	.	.	.	.
=46	=46	=46	=46	=46	=46	=46	=46	=46	=46
0r	.	1c	pen-	2.A	Ce	2.F	Je	0r	.
.	.	.	.	4B	que	4G	ne	.	.
.	.	2.F	.	2c	mon	2A	le	.	.
.	.	.	.	2d	cueur	2D	dy	.	.
.	.	4G	.	.	.	.	.	.	.
=47	=47	=47	=47	=47	=47	=47	=47	=47	=47
1r	.	1A	-se,	1c	pen-	1F	pas,	0r	.
2.F	Je	1r	.	1A	-se,	2r	.	.	.
.	.	.	.	.	.	[2f	je	.	.
4F	ne	.	.	.	.	.	.	.	.
=48	=48	=48	=48	=48	=48	=48	=48	=48	=48
2F	le	2.c	Je	2A	Je	4f]	.	0r	.
.	.	.	.	.	.	4e	ne	.	.
2F	dy	.	.	2A	ne	4c	le	.	.
.	.	4c	ne	.	.	4d	dy	.	.
2E	pas,	2c	le	2G	le	2e	pas,	.	.
2F	he-	2c	dy	2A	dy	2A	he-	.	.
=49	=49	=49	=49	=49	=49	=49	=49	=49	=49
1G	-las,	2.B	pas,	1E	pas,	1e	-las,	1r	.
.	.	4c	He-	.	.	.	.	.	.
2.D	je	2d	-las,	2.F	He-	1r	.	2.a	Ce
.	.	[2A	je	.	.	.	.	.	.
4D	ne	.	.	8EL	.	.	.	4b	que
.	.	.	.	8FJ	.	.	.	.	.
=50	=50	=50	=50	=50	=50	=50	=50	=50	=50
2C	le	2A]	.	2E	.	0r	.	2cc	mon
2BB	dy	2G	ne	2D	.	.	.	2dd	cueur
[1AA	pas,	2.A	le	1E	-las,	.	.	1cc	pen-
.	.	4B	dy	.	.	.	.	.	.
=51	=51	=51	=51	=51	=51	=51	=51	=51	=51
0AA]	.	2c	pas,	2.E	je	2.c	je	0a	-se,
.	.	2.C	He-	.	.	.	.	.	.
.	.	.	.	4E	ne	4c	ne	.	.
.	.	.	.	2E	le	2c	le	.	.
.	.	4D	.	.	.	.	.	.	.
.	.	4E	.	2E	dy	2c	dy	.	.
.	.	4F	.	.	.	.	.	.	.
=52	=52	=52	=52	=52	=52	=52	=52	=52	=52
1r	.	2G	.	2E	pas,	2B	pas,	1r	.
.	.	2E	.	2G	He-	2c	He-	.	.
2.D	je	1F	-las,	[1A	-las,	1d	-las,	2f	Je
.	.	.	.	.	.	.	.	2f	ne
4D	ne	.	.	.	.	.	.	.	.
=53	=53	=53	=53	=53	=53	=53	=53	=53	=53
2D	le	1r	.	2A]	.	2.d	He-	2f	le
2D	dy	.	.	4G	.	.	.	2f	dy
.	.	.	.	4F	.	8cL	.	.	.
.	.	.	.	.	.	8dJ	.	.	.
2C	pas,	2.c	je	2G	.	2e	.	2e	pas,
2FF	.	.	.	2A	He-	2A	.	2f	He-
.	.	4c	ne	.	.	.	.	.	.
=54	=54	=54	=54	=54	=54	=54	=54	=54	=54
2.C	He-	2c	le	2.E	-las,	1e	-las	1g	-las,
.	.	2c	dy	.	.	.	.	.	.
4D	.	.	.	4F	.	.	.	.	.
1E	.	2B	pas,	1G	.	2r	.	1r	.
.	.	2c	He-	.	.	2E	je	.	.
=55	=55	=55	=55	=55	=55	=55	=55	=55	=55
1D	-las,	1.d	-las,	0A	.	1F	ne	2.f	je
.	.	.	.	.	.	.	.	4f	ne
2r	.	.	.	.	.	2D	le	2f	le
2D	He-	4c	.	.	.	2D	dy	2f	dy
.	.	4B	.	.	.	.	.	.	.
=56	=56	=56	=56	=56	=56	=56	=56	=56	=56
2AA	-las,	2c	.	0r	.	2A	pas	2e	pas,
2D	He-	2A	.	.	.	2F	He-	2f	He-
1GG	-las,	1B	He-	.	.	2D	-las,	4g	-las
.	.	.	.	.	.	.	.	4f	.
.	.	.	.	.	.	2E	he-	4e	.
.	.	.	.	.	.	.	.	4d	.
=57	=57	=57	=57	=57	=57	=57	=57	=57	=57
0r	.	2A	-las,	2.F	je	2F	-las,	2c	.
.	.	2D	.	.	.	2r	.	2d	.
.	.	.	.	4F	ne	.	.	.	.
.	.	1r	.	2F	le	2.c	je	1A	.
.	.	.	.	2F	dy	.	.	.	.
.	.	.	.	.	.	4c	ne	.	.
=58	=58	=58	=58	=58	=58	=58	=58	=58	=58
2.AA	je	2.A	je	2E	pas,	2c	le	2r	.
.	.	.	.	2F	he-	2c	dy	2a	je
4AA	ne	4A	ne	.	.	.	.	.	.
2E	le	2E	le	2G	-las,	2B	pas,	2g	ne
2AA	dy	2A	dy	[2A	je	2c	he-	2e	le
=59	=59	=59	=59	=59	=59	=59	=59	=59	=59
2.D	pas,	1F	pas,	2A]	.	2d	-las,	2.f	dy
.	.	.	.	2D	ne	2d	je	.	.
4C	.	.	.	.	.	.	.	4e	.
2D	.	1D	.	2F	le	2A	ne	2f	.
2GG	.	.	.	2G	dy	2B	le	[2d	pas
=60	=60	=60	=60	=60	=60	=60	=60	=60	=60
1AA	He-	1A	.	2E	pas,	1A	dy	2d]	.
.	.	.	.	2E	He-	.	.	2c#i	He-
[1D	-las,	2r	.	1D	-las,	[1F	pas,	[1dl	-las.
.	.	2A	je	.	.	.	.	.	.
=61	=61	=61	=61	=61	=61	=61	=61	=61	=61
0D]	.	2F	ne	2r	.	0F_	.	0d_	.
.	.	2D	le	2A	je	.	.	.	.
.	.	1A	dy	2F	ne	.	.	.	.
.	.	.	.	2D	le	.	.	.	.
=62	=62	=62	=62	=62	=62	=62	=62	=62	=62
2r	.	2D	pas,	1A	dy	1F]	.	0d_	.
2D	je	2d	je	.	.	.	.	.	.
2BB	ne	2d	ne	2D	pas,	1r	.	.	.
2GG	le	2B	le	[2G	He-	.	.	.	.
=63	=63	=63	=63	=63	=63	=63	=63	=63	=63
1D	dy	1A	dy	2G]	.	2r	.	0d_	.
.	.	.	.	2F#i	.	2d	je	.	.
[1GG	pas,	2G	pas,	[1G	-las.	2B	ne	.	.
.	.	2D	.	.	.	2G	le	.	.
=64	=64	=64	=64	=64	=64	=64	=64	=64	=64
2GG]	.	1G	He-	2G]	.	1B	dy	0d_	.
2GG	He-	.	.	4F#X	.	.	.	.	.
.	.	.	.	4E	.	.	.	.	.
[1Dl	-las.	[1Dl	-las.	[1F#il	.	2A	pas,	.	.
.	.	.	.	.	.	2A	He-	.	.
=65	=65	=65	=65	=65	=65	=65	=65	=65	=65
00D]	.	00D]	.	00F#]	.	00Al	-las.	00d]	.
==	==	==	==	==	==	==	==	==	==
*-	*-	*-	*-	*-	*-	*-	*-	*-	*-
!!!system-decoration: [*]
!!!RDF**kern: i = editorial accidental
!!!RDF**kern: l = terminal long
!!!ENC: Benjamin Ory
!!!END: 2024/4/20
!!!EED: Benjamin Ory
!!!EEV: 2024/4/20
!!!YEC: Copyright 2024 Benjamin Ory, All Rights Reserved
!!!ONB: Translated from MusicXML on 2024/4/20